src/assets/duotone/PenAdd.svg

<svg width="24" height="24" viewBox="0 0 24 24"  xmlns="http://www.w3.org/2000/svg">
<path d="M21.7096 11.3499L18.6996 13.2499L12.6196 7.16993L14.5096 4.15992C15.3896 2.76992 17.1596 2.70995 18.4496 3.99995L21.8596 7.40992C23.0796 8.63992 22.9996 10.5299 21.7096 11.3499Z" />
<path opacity="0.4" d="M15.9999 21.2898L6.63985 22.3898C5.98985 22.4698 5.40985 22.3698 4.91985 22.1298C4.39985 21.8698 3.98985 21.4698 3.72985 20.9398C3.48985 20.4498 3.39985 19.8798 3.46985 19.2398L4.50985 10.5298C4.67985 10.6198 4.86985 10.6998 5.05985 10.7598C5.50985 10.9198 5.98985 10.9998 6.49985 10.9998C7.63985 10.9998 8.66986 10.5798 9.45986 9.87982C9.80986 9.57982 10.1099 9.21982 10.3499 8.81982C10.5599 8.46982 10.7199 8.09983 10.8299 7.69983C10.8899 7.49983 10.9299 7.28982 10.9599 7.06982L12.6198 7.1698L18.6998 13.2598L18.9599 17.6798C19.2099 20.1598 18.3499 21.0198 15.9999 21.2898Z" />
<path d="M8.77974 18.2798L4.92973 22.1298C4.39973 21.8698 3.99975 21.4698 3.73975 20.9398L7.58974 17.0898C7.92974 16.7598 8.45974 16.7598 8.77974 17.0898C9.10974 17.4198 9.10974 17.9498 8.77974 18.2798Z" />
<path d="M6.5 2C5.44 2 4.46 2.36999 3.69 2.98999C2.65 3.80999 2 5.08 2 6.5C2 7.34 2.23999 8.14001 2.64999 8.82001C3.18999 9.72001 4.04 10.42 5.06 10.76C5.51 10.92 5.99 11 6.5 11C7.64 11 8.67001 10.58 9.46001 9.88C9.81001 9.58 10.11 9.22001 10.35 8.82001C10.56 8.47001 10.72 8.10001 10.83 7.70001C10.94 7.32001 11 6.91 11 6.5C11 4.01 8.99 2 6.5 2ZM8.16 7.25H7.27V8.17999C7.27 8.58999 6.93 8.92999 6.52 8.92999C6.11 8.92999 5.77 8.58999 5.77 8.17999V7.25H4.8C4.39 7.25 4.05 6.91 4.05 6.5C4.05 6.09 4.39 5.75 4.8 5.75H5.77V4.82001C5.77 4.41001 6.11 4.07001 6.52 4.07001C6.93 4.07001 7.27 4.41001 7.27 4.82001V5.75H8.16C8.57 5.75 8.91 6.09 8.91 6.5C8.91 6.91 8.58 7.25 8.16 7.25Z" />
</svg>

<?xml version="1.0" encoding="UTF-8"?>
<svg width="24" height="24" viewBox="0 0 24 24" xmlns="http://www.w3.org/2000/svg">
 <path d="m21.71 11.35-3.01 1.9-6.08-6.08 1.89-3.01c0.88-1.39 2.65-1.45 3.94-0.15997l3.41 3.41c1.22 1.23 1.14 3.12-0.15 3.94z"/>
 <path d="m16 21.29-9.36 1.1c-0.65 0.08-1.23-0.02-1.72-0.26-0.52-0.26-0.93-0.66-1.19-1.19-0.24-0.49-0.33-1.06-0.26-1.7l1.04-8.71c0.17 0.09 0.36 0.17 0.55 0.23 0.45 0.16 0.93 0.24 1.44 0.24 1.14 0 2.17-0.42 2.96-1.12 0.35-0.3 0.65004-0.66 0.89004-1.06 0.21-0.35 0.37-0.71999 0.48-1.12 0.06-0.2 0.1-0.41001 0.13-0.63001l1.6599 0.09998 6.08 6.09 0.2601 4.42c0.25 2.48-0.61 3.34-2.96 3.61z" opacity=".4"/>
 <path d="m8.7797 18.28-3.85 3.85c-0.53-0.26-0.92998-0.66-1.19-1.19l3.85-3.85c0.34-0.33 0.87-0.33 1.19 0 0.33 0.33 0.33 0.86 0 1.19z"/>
 <path d="m6.5 2c-1.06 0-2.04 0.36999-2.81 0.98999-1.04 0.82-1.69 2.09-1.69 3.51 0 0.84 0.23999 1.64 0.64999 2.32 0.54 0.9 1.39 1.6 2.41 1.94 0.45 0.16 0.93 0.24 1.44 0.24 1.14 0 2.17-0.42 2.96-1.12 0.35-0.3 0.64999-0.65999 0.88999-1.06 0.21-0.35 0.37-0.72 0.48-1.12 0.11-0.38 0.17-0.79001 0.17-1.2 0-2.49-2.01-4.5-4.5-4.5zm1.66 5.25h-0.89v0.92999c0 0.41-0.34 0.75-0.75 0.75s-0.75-0.34-0.75-0.75v-0.92999h-0.97c-0.41 0-0.75-0.34-0.75-0.75s0.34-0.75 0.75-0.75h0.97v-0.92999c0-0.41 0.34-0.75 0.75-0.75s0.75 0.34 0.75 0.75v0.92999h0.89c0.41 0 0.75 0.34 0.75 0.75s-0.33 0.75-0.75 0.75z"/>
</svg>
